X:1
T:Sunny Day Revised
M:4/4
L:1/8
Q:1/4=140
K:G
V:1
|: "G" G2 B2 d2 d2 | "C" c2 e2 e2 d2 | "G" g4 d4 | "D7" ^f2 e2 d4 |
| "G" G2 B2 d2 d2 | "C" e4 g4 | "G" b2 g2 b2 a2 | "D7" f2 d2 B4 :|
| "C" G2 c2 e2 g2 | "G" a4 b4 | "D7" f2 f2 g2 a2 | "G" ^f2 g2 f4 |
| "C" G2 c2 e2 g2 | "G" d4 B4 | "D7" f2 f2 g2 a2 | "G" b2 g2 f4 |
| "G" G2 B2 d2 d2 | "C" e4 g4 | "G" d2 g2 b4 | "D7" f2 e2 d4 |
| "G" G2 B2 d2 d2 | "C" e4 g4 | "G" g2 b2 d4 | "D7" f2 d2 B4 |
```



